X:1
T:Title
%%score ( 1 2 ) { 3 | 4 }
L:1/8
Q:1/4=105
M:4/4
K:A
V:1 treble nm="Grand Piano, Soprano"
V:2 treble 
V:3 bass nm="Choir Pad, Weary Not in Well Doing"
V:4 bass 
V:1
 [CA]2 [CA][DA] [EA]2 [Ec]2 | [EB]4 E4 | [EB]2 [EB][Ec] [EB]2 [DE]2 | [CA]6 z2 | %4
w: By~William~Thomas~Giffe * * * *||||
 [CA]2 [CA][DA] [EA]2 [CA][Ec] | [EB]2 E2 [EB]4 | [EB]2 [Ec][DB] [CA]2 [DG]2 | [CA]6 z2 | %8
w: ||||
 F4 F2 z2 | E4 E2 z2 | [EB]2 [EB]2 [EA]2 [EB]2 | [Ec]6 z2 | [DF]2 [DF][DF] [FA]2 [DF][DF] | %13
w: |||||
 [CE]2 [EA]2 [Ec]4 | [Ec]2 [CA][CA] [DB]2 [DG]2 | [CA]8 |] %16
w: |||
V:2
 x8 | x8 | x8 | x8 | x8 | x8 | x8 | x8 | D2 D2 A2- [DA]2 | C2 C2 A2- [CA]2 | x8 | x8 | x8 | x8 | %14
 x8 | x8 |] %16
V:3
 A,2 A,A, A,2 A,2 | G,2 G,2 G,2 G,2 | G,2 G,A, G,2 B,2 | A,6 z2 | A,2 A,A, A,2 A,A, | G,2 G,2 G,4 | %6
 G,2 A,G, A,2 B,2 | A,6 z2 | A,2 A,2 D2 A,2 | A,2 A,2 C2 A,2 | G,2 G,2 A,2 G,2 | A,6 z2 | %12
 A,2 A,A, A,2 A,A, | A,2 C2 A,4 | A,2 A,A, G,2 B,2 | A,8 |] %16
V:4
 A,,2 A,,B,, C,2 A,,2 | E,2 E,2 E,2 E,2 | E,2 E,E, E,2 E,2 | A,,6 z2 | A,,2 A,,B,, C,2 A,,A,, | %5
 E,2 E,2 E,4 | E,2 E,E, E,2 E,2 | A,,6 z2 | D,2 D,2 D,2 F,2 | z4 A,,2 A,,2 | E,2 E,2 C,2 E,2 | z8 | %12
 D,2 D,D, D,2 D,D, | A,,2 A,,2 A,,4 | E,2 E,E, E,2 E,2 | A,,8 |] %16

